;Generated with Cura_SteamEngine 13.11.2
M92 E450.000000
M109 T0 S190.000000
T0
;?filename? was sliced on Fri 20-12-2013 at 21:48:20
;
;Accuracy:	Main:		0.2mm
;		First Layer:	0.2mm
;
;Fill:		Density:	20%
;
;Shell: 	Walls:		1mm
;		Top/Bottom:	0.6mm
;
;Speed:		Main:		50mm/s
;		Perimeter:	?perimeter_speed?mm/s
;		First Layer:	25mm/s
;		Travel:		150mm/s
;		Bridge:		?bridge_speed?mm/s
;		Minimum:	10mm/s
;
;Fans:		Perimeter:	?fan_perimeter?%
;		Infill:		?fan_infill?%
;		Bridge:		?fan_bridge?%
;
;(DO NOT insert anything below this section.)
;(The following is required to use Z offset.)
;(Home Z to min endstop, raise nozzle before Z-offset moves to center and Z offset is inserted automatically.)
G28 Z0
G1 Z5.0 F?max_z_speed?

;Layer count: 50
;LAYER:0
M107
G0 F4500 X30.25 Y35.96 Z0.20
;TYPE:SKIRT
G1 F2400 E0.00000
G1 F1500 X35.96 Y30.25 E0.11427
G1 X64.04 Y30.25 E0.51146
G1 X69.75 Y35.96 E0.62573
G1 X69.75 Y64.04 E1.02291
G1 X64.04 Y69.75 E1.13718
G1 X35.96 Y69.75 E1.53436
G1 X30.25 Y64.04 E1.64863
G1 X30.25 Y35.96 E2.04583
G0 F4500 X30.75 Y36.17
G1 F1500 X36.17 Y30.75 E2.15424
G1 X63.83 Y30.75 E2.54557
G1 X69.25 Y36.17 E2.65398
G1 X69.25 Y63.83 E3.04531
G1 X63.83 Y69.25 E3.15371
G1 X36.17 Y69.25 E3.54504
G1 X30.75 Y63.83 E3.65344
G1 X30.75 Y36.17 E4.04478
G0 F4500 X31.25 Y36.38
G1 F1500 X36.38 Y31.25 E4.14733
G1 X63.62 Y31.25 E4.53281
G1 X68.75 Y36.38 E4.63535
G1 X68.75 Y63.62 E5.02082
G1 X63.62 Y68.75 E5.12337
G1 X36.38 Y68.75 E5.50883
G1 X31.25 Y63.62 E5.61138
G1 X31.25 Y36.38 E5.99686
G0 F4500 X31.75 Y36.58
G1 F1500 X36.58 Y31.75 E6.09354
G1 X63.42 Y31.75 E6.47317
G1 X68.25 Y36.58 E6.56985
G1 X68.25 Y63.42 E6.94946
G1 X63.42 Y68.25 E7.04614
G1 X36.58 Y68.25 E7.42575
G1 X31.75 Y63.42 E7.52244
G1 X31.75 Y36.58 E7.90206
G0 F4500 X32.25 Y36.79
G1 F1500 X36.79 Y32.25 E7.99288
G1 X63.21 Y32.25 E8.36665
G1 X67.75 Y36.79 E8.45747
G1 X67.75 Y63.21 E8.83122
G1 X63.21 Y67.75 E8.92205
G1 X36.79 Y67.75 E9.29580
G1 X32.25 Y63.21 E9.38662
G1 X32.25 Y36.79 E9.76039
G0 F4500 X32.75 Y37.00
G1 F1500 X37.00 Y32.75 E9.84535
G1 X63.00 Y32.75 E10.21326
G1 X67.25 Y37.00 E10.29822
G1 X67.25 Y63.00 E10.66610
G1 X63.00 Y67.25 E10.75108
G1 X37.00 Y67.25 E11.11896
G1 X32.75 Y63.00 E11.20392
G1 X32.75 Y37.00 E11.57183
G0 F4500 X33.25 Y37.20
G1 F1500 X37.20 Y33.25 E11.65093
G1 X62.79 Y33.25 E12.01296
G1 X66.75 Y37.21 E12.09208
G1 X66.75 Y62.79 E12.45409
G1 X62.79 Y66.75 E12.53321
G1 X37.21 Y66.75 E12.89522
G1 X33.25 Y62.79 E12.97434
G1 X33.25 Y37.20 E13.33638
G0 F4500 X33.75 Y37.41
G1 F1500 X37.41 Y33.75 E13.40963
G1 X62.59 Y33.75 E13.76580
G1 X66.25 Y37.41 E13.83906
G1 X66.25 Y62.59 E14.19521
G1 X62.59 Y66.25 E14.26846
G1 X37.41 Y66.25 E14.62462
G1 X33.75 Y62.59 E14.69787
G1 X33.75 Y37.41 E15.05404
G0 F4500 X34.25 Y37.62
G1 F1500 X37.62 Y34.25 E15.12143
G1 X62.38 Y34.25 E15.47175
G1 X65.75 Y37.62 E15.53914
G1 X65.75 Y62.38 E15.88944
G1 X62.38 Y65.75 E15.95683
G1 X37.62 Y65.75 E16.30713
G1 X34.25 Y62.38 E16.37452
G1 X34.25 Y37.62 E16.72483
G0 F4500 X34.75 Y37.83
G1 F1500 X37.83 Y34.75 E16.78636
G1 X62.17 Y34.75 E17.13082
G1 X65.25 Y37.83 E17.19235
G1 X65.25 Y62.17 E17.53679
G1 X62.17 Y65.25 E17.59832
G1 X37.83 Y65.25 E17.94276
G1 X34.75 Y62.17 E18.00429
G1 X34.75 Y37.83 E18.34874
G0 F4500 X35.25 Y38.03
G1 F1500 X38.03 Y35.25 E18.40441
G1 X61.97 Y35.25 E18.74301
G1 X64.75 Y38.03 E18.79868
G1 X64.75 Y61.97 E19.13726
G1 X61.97 Y64.75 E19.19293
G1 X38.03 Y64.75 E19.53151
G1 X35.25 Y61.97 E19.58718
G1 X35.25 Y38.03 E19.92578
G0 F4500 X35.75 Y38.24
G1 F1500 X38.24 Y35.75 E19.97559
G1 X61.76 Y35.75 E20.30833
G1 X64.25 Y38.24 E20.35814
G1 X64.25 Y61.76 E20.69086
G1 X61.76 Y64.25 E20.74067
G1 X38.24 Y64.25 E21.07339
G1 X35.75 Y61.76 E21.12320
G1 X35.75 Y38.24 E21.45594
G0 F4500 X36.25 Y38.45
G1 F1500 X38.45 Y36.25 E21.49989
G1 X61.55 Y36.25 E21.82677
G1 X63.75 Y38.45 E21.87072
G1 X63.75 Y61.55 E22.19758
G1 X61.55 Y63.75 E22.24153
G1 X38.45 Y63.75 E22.56840
G1 X36.25 Y61.55 E22.61234
G1 X36.25 Y38.45 E22.93923
G0 F4500 X36.75 Y38.65
G1 F1500 X38.65 Y36.75 E22.97731
G1 X61.35 Y36.75 E23.29834
G1 X63.25 Y38.65 E23.33642
G1 X63.25 Y61.35 E23.65743
G1 X61.35 Y63.25 E23.69552
G1 X38.65 Y63.25 E24.01653
G1 X36.75 Y61.35 E24.05461
G1 X36.75 Y38.65 E24.37564
G0 F4500 X37.25 Y38.86
G1 F1500 X38.86 Y37.25 E24.40786
G1 X61.14 Y37.25 E24.72303
G1 X62.75 Y38.86 E24.75525
G1 X62.75 Y61.14 E25.07040
G1 X61.14 Y62.75 E25.10263
G1 X38.86 Y62.75 E25.41778
G1 X37.25 Y61.14 E25.45000
G1 X37.25 Y38.86 E25.76517
G0 F4500 X37.75 Y39.07
G1 F1500 X39.07 Y37.75 E25.79153
G1 X60.93 Y37.75 E26.10083
G1 X62.25 Y39.07 E26.12721
G1 X62.25 Y60.93 E26.43648
G1 X60.93 Y62.25 E26.46286
G1 X39.07 Y62.25 E26.77213
G1 X37.75 Y60.93 E26.79851
G1 X37.75 Y39.07 E27.10780
G0 F4500 X38.25 Y39.28
G1 F1500 X39.28 Y38.25 E27.12832
G1 X60.72 Y38.25 E27.43175
G1 X61.75 Y39.28 E27.45227
G1 X61.75 Y60.72 E27.75568
G1 X60.72 Y61.75 E27.77620
G1 X39.28 Y61.75 E28.07961
G1 X38.25 Y60.72 E28.10013
G1 X38.25 Y39.28 E28.40355
G0 F4500 X38.75 Y39.48
G1 F1500 X39.48 Y38.75 E28.41821
G1 X60.52 Y38.75 E28.71578
G1 X61.25 Y39.48 E28.73043
G1 X61.25 Y60.52 E29.02799
G1 X60.52 Y61.25 E29.04265
G1 X39.48 Y61.25 E29.34020
G1 X38.75 Y60.52 E29.35486
G1 X38.75 Y39.48 E29.65243
G0 F4500 X39.25 Y39.69
G1 F1500 X39.69 Y39.25 E29.66122
G1 X60.31 Y39.25 E29.95293
G1 X60.75 Y39.69 E29.96173
G1 X60.75 Y60.31 E30.25343
G1 X60.31 Y60.75 E30.26222
G1 X39.69 Y60.75 E30.55392
G1 X39.25 Y60.31 E30.56271
G1 X39.25 Y39.69 E30.85442
G0 F4500 X39.75 Y39.90
G1 F1500 X39.90 Y39.75 E30.85736
G1 X60.10 Y39.75 E31.14321
G1 X60.25 Y39.90 E31.14614
G1 X60.25 Y60.10 E31.43199
G1 X60.10 Y60.25 E31.43492
G1 X39.90 Y60.25 E31.72076
G1 X39.75 Y60.10 E31.72369
G1 X39.75 Y39.90 E32.00955
G0 F4500 X40.75 Y40.75
;TYPE:WALL-INNER
G1 F1500 X59.25 Y40.75 E32.27125
G1 X59.25 Y59.25 E32.53295
G1 X40.75 Y59.25 E32.79464
G1 X40.75 Y40.75 E33.05635
G0 F4500 X40.25 Y40.25
;TYPE:WALL-OUTER
G1 F1500 X59.75 Y40.25 E33.33220
G1 X59.75 Y59.75 E33.60804
G1 X40.25 Y59.75 E33.88388
G1 X40.25 Y40.25 E34.15974
G0 F4500 X40.92 Y41.28
;TYPE:FILL
G1 F1500 X58.72 Y59.07 E34.51574
G0 F4500 X59.07 Y58.72
G1 F1500 X41.28 Y40.92 E34.87176
G0 F4500 X41.99 Y40.92
G1 F1500 X59.07 Y58.01 E35.21363
G0 F4500 X59.07 Y57.31
G1 F1500 X42.69 Y40.92 E35.54135
G0 F4500 X43.40 Y40.92
G1 F1500 X59.07 Y56.60 E35.85492
G0 F4500 X59.07 Y55.89
G1 F1500 X44.11 Y40.92 E36.15435
G0 F4500 X44.81 Y40.92
G1 F1500 X59.07 Y55.18 E36.43962
G0 F4500 X59.07 Y54.48
G1 F1500 X45.52 Y40.92 E36.71074
G0 F4500 X46.23 Y40.92
G1 F1500 X59.07 Y53.77 E36.96772
G0 F4500 X59.07 Y53.06
G1 F1500 X46.94 Y40.92 E37.21056
G0 F4500 X47.64 Y40.92
G1 F1500 X59.07 Y52.36 E37.43925
G0 F4500 X59.07 Y51.65
G1 F1500 X48.35 Y40.92 E37.65379
G0 F4500 X49.06 Y40.92
G1 F1500 X59.07 Y50.94 E37.85419
G0 F4500 X59.07 Y50.23
G1 F1500 X49.76 Y40.92 E38.04044
G0 F4500 X50.47 Y40.92
G1 F1500 X59.07 Y49.53 E38.21254
G0 F4500 X59.07 Y48.82
G1 F1500 X51.18 Y40.92 E38.37050
G0 F4500 X51.89 Y40.92
G1 F1500 X59.07 Y48.11 E38.51430
G0 F4500 X59.07 Y47.41
G1 F1500 X52.59 Y40.92 E38.64395
G0 F4500 X53.30 Y40.92
G1 F1500 X59.07 Y46.70 E38.75946
G0 F4500 X59.07 Y45.99
G1 F1500 X54.01 Y40.92 E38.86083
G0 F4500 X54.71 Y40.92
G1 F1500 X59.07 Y45.28 E38.94805
G0 F4500 X59.07 Y44.58
G1 F1500 X55.42 Y40.92 E39.02112
G0 F4500 X56.13 Y40.92
G1 F1500 X59.07 Y43.87 E39.08005
G0 F4500 X59.07 Y43.16
G1 F1500 X56.83 Y40.92 E39.12483
G0 F4500 X57.54 Y40.92
G1 F1500 X59.07 Y42.46 E39.15546
G0 F4500 X59.07 Y41.75
G1 F1500 X58.25 Y40.92 E39.17194
G0 F4500 X58.96 Y40.92
G1 F1500 X59.07 Y41.04 E39.17427
G0 F4500 X58.01 Y59.07
G1 F1500 X40.92 Y41.99 E39.51613
G0 F4500 X40.92 Y42.69
G1 F1500 X57.30 Y59.07 E39.84384
G0 F4500 X56.60 Y59.07
G1 F1500 X40.92 Y43.40 E40.15741
G0 F4500 X40.92 Y44.11
G1 F1500 X55.89 Y59.07 E40.45684
G0 F4500 X55.18 Y59.07
G1 F1500 X40.92 Y44.81 E40.74212
G0 F4500 X40.92 Y45.52
G1 F1500 X54.48 Y59.07 E41.01325
G0 F4500 X53.77 Y59.07
G1 F1500 X40.92 Y46.23 E41.27024
G0 F4500 X40.92 Y46.93
G1 F1500 X53.06 Y59.07 E41.51308
G0 F4500 X52.35 Y59.07
G1 F1500 X40.92 Y47.64 E41.74176
G0 F4500 X40.92 Y48.35
G1 F1500 X51.65 Y59.07 E41.95630
G0 F4500 X50.94 Y59.07
G1 F1500 X40.92 Y49.06 E42.15669
G0 F4500 X40.92 Y49.76
G1 F1500 X50.23 Y59.07 E42.34293
G0 F4500 X49.53 Y59.07
G1 F1500 X40.92 Y50.47 E42.51503
G0 F4500 X40.92 Y51.18
G1 F1500 X48.82 Y59.07 E42.67299
G0 F4500 X48.11 Y59.07
G1 F1500 X40.92 Y51.88 E42.81679
G0 F4500 X40.92 Y52.59
G1 F1500 X47.40 Y59.07 E42.94644
G0 F4500 X46.70 Y59.07
G1 F1500 X40.92 Y53.30 E43.06195
G0 F4500 X40.92 Y54.01
G1 F1500 X45.99 Y59.07 E43.16332
G0 F4500 X45.28 Y59.07
G1 F1500 X40.92 Y54.71 E43.25054
G0 F4500 X40.92 Y55.42
G1 F1500 X44.58 Y59.07 E43.32362
G0 F4500 X43.87 Y59.07
G1 F1500 X40.92 Y56.13 E43.38254
G0 F4500 X40.92 Y56.83
G1 F1500 X43.16 Y59.07 E43.42731
G0 F4500 X42.46 Y59.07
G1 F1500 X40.92 Y57.54 E43.45794
G0 F4500 X40.92 Y58.25
G1 F1500 X41.75 Y59.07 E43.47442
G0 F4500 X41.04 Y59.07
G1 F1500 X40.92 Y58.96 E43.47675
;LAYER:1
M106 S127
G0 F9000 X40.75 Y59.25 Z0.40
;TYPE:WALL-INNER
G1 F1860 X40.75 Y40.75 E43.73846
G1 X59.25 Y40.75 E44.00016
G1 X59.25 Y59.25 E44.26186
G1 X40.75 Y59.25 E44.52355
G0 F9000 X40.25 Y59.75
;TYPE:WALL-OUTER
G1 F1860 X40.25 Y40.25 E44.79941
G1 X59.75 Y40.25 E45.07526
G1 X59.75 Y59.75 E45.35110
G1 X40.25 Y59.75 E45.62694
G0 F9000 X40.98 Y59.07
;TYPE:FILL
G1 F1860 X59.07 Y40.98 E45.98891
G0 F9000 X58.42 Y40.92
G1 F1860 X40.92 Y58.42 E46.33897
G0 F9000 X40.92 Y57.72
G1 F1860 X57.72 Y40.92 E46.67489
G0 F9000 X57.01 Y40.92
G1 F1860 X40.92 Y57.01 E46.99666
G0 F9000 X40.92 Y56.30
G1 F1860 X56.30 Y40.92 E47.30429
G0 F9000 X55.59 Y40.92
G1 F1860 X40.92 Y55.59 E47.59777
G0 F9000 X40.92 Y54.89
G1 F1860 X54.89 Y40.92 E47.87711
G0 F9000 X54.18 Y40.92
G1 F1860 X40.92 Y54.18 E48.14228
G0 F9000 X40.92 Y53.47
G1 F1860 X53.47 Y40.92 E48.39331
G0 F9000 X52.76 Y40.92
G1 F1860 X40.92 Y52.76 E48.63020
G0 F9000 X40.92 Y52.06
G1 F1860 X52.06 Y40.92 E48.85293
G0 F9000 X51.35 Y40.92
G1 F1860 X40.92 Y51.35 E49.06153
G0 F9000 X40.92 Y50.64
G1 F1860 X50.64 Y40.92 E49.25598
G0 F9000 X49.94 Y40.92
G1 F1860 X40.92 Y49.94 E49.43629
G0 F9000 X40.92 Y49.23
G1 F1860 X49.23 Y40.92 E49.60245
G0 F9000 X48.52 Y40.92
G1 F1860 X40.92 Y48.52 E49.75446
G0 F9000 X40.92 Y47.82
G1 F1860 X47.81 Y40.92 E49.89232
G0 F9000 X47.11 Y40.92
G1 F1860 X40.92 Y47.11 E50.01603
G0 F9000 X40.92 Y46.40
G1 F1860 X46.40 Y40.92 E50.12560
G0 F9000 X45.69 Y40.92
G1 F1860 X40.92 Y45.69 E50.22102
G0 F9000 X40.92 Y44.99
G1 F1860 X44.99 Y40.92 E50.30230
G0 F9000 X44.28 Y40.92
G1 F1860 X40.92 Y44.28 E50.36944
G0 F9000 X40.92 Y43.57
G1 F1860 X43.57 Y40.92 E50.42242
G0 F9000 X42.87 Y40.92
G1 F1860 X40.92 Y42.87 E50.46126
G0 F9000 X40.92 Y42.16
G1 F1860 X42.16 Y40.92 E50.48595
G0 F9000 X41.45 Y40.92
G1 F1860 X40.92 Y41.45 E50.49649
G0 F9000 X41.69 Y59.07
G1 F1860 X59.07 Y41.69 E50.84431
G0 F9000 X59.07 Y42.40
G1 F1860 X42.40 Y59.07 E51.17797
G0 F9000 X43.10 Y59.07
G1 F1860 X59.07 Y43.10 E51.49748
G0 F9000 X59.07 Y43.81
G1 F1860 X43.81 Y59.07 E51.80285
G0 F9000 X44.52 Y59.07
G1 F1860 X59.07 Y44.52 E52.09407
G0 F9000 X59.07 Y45.22
G1 F1860 X45.22 Y59.07 E52.37115
G0 F9000 X45.93 Y59.07
G1 F1860 X59.07 Y45.93 E52.63408
G0 F9000 X59.07 Y46.64
G1 F1860 X46.64 Y59.07 E52.88287
G0 F9000 X47.35 Y59.07
G1 F1860 X59.07 Y47.35 E53.11751
G0 F9000 X59.07 Y48.05
G1 F1860 X48.05 Y59.07 E53.33801
G0 F9000 X48.76 Y59.07
G1 F1860 X59.07 Y48.76 E53.54436
G0 F9000 X59.07 Y49.47
G1 F1860 X49.47 Y59.07 E53.73655
G0 F9000 X50.17 Y59.07
G1 F1860 X59.07 Y50.17 E53.91459
G0 F9000 X59.07 Y50.88
G1 F1860 X50.88 Y59.07 E54.07849
G0 F9000 X51.59 Y59.07
G1 F1860 X59.07 Y51.59 E54.22823
G0 F9000 X59.07 Y52.29
G1 F1860 X52.30 Y59.07 E54.36383
G0 F9000 X53.00 Y59.07
G1 F1860 X59.07 Y53.00 E54.48528
G0 F9000 X59.07 Y53.71
G1 F1860 X53.71 Y59.07 E54.59259
G0 F9000 X54.42 Y59.07
G1 F1860 X59.07 Y54.42 E54.68575
G0 F9000 X59.07 Y55.12
G1 F1860 X55.12 Y59.07 E54.76477
G0 F9000 X55.83 Y59.07
G1 F1860 X59.07 Y55.83 E54.82963
G0 F9000 X59.07 Y56.54
G1 F1860 X56.54 Y59.07 E54.88035
G0 F9000 X57.24 Y59.07
G1 F1860 X59.07 Y57.24 E54.91692
G0 F9000 X59.07 Y57.95
G1 F1860 X57.95 Y59.07 E54.93934
G0 F9000 X58.66 Y59.07
G1 F1860 X59.07 Y58.66 E54.94761
;LAYER:2
M106 S255
G0 F9000 X59.25 Y59.25 Z0.60
;TYPE:WALL-INNER
G1 F2220 X40.75 Y59.25 E55.20931
G1 X40.75 Y40.75 E55.47102
G1 X59.25 Y40.75 E55.73272
G1 X59.25 Y59.25 E55.99442
G0 F9000 X59.75 Y59.75
;TYPE:WALL-OUTER
G1 F2220 X40.25 Y59.75 E56.27026
G1 X40.25 Y40.25 E56.54611
G1 X59.75 Y40.25 E56.82196
G1 X59.75 Y59.75 E57.09781
G0 F9000 X59.07 Y58.72
;TYPE:FILL
G1 F2220 X41.28 Y40.92 E57.45382
G0 F9000 X40.92 Y41.28
G1 F2220 X58.72 Y59.07 E57.80983
G0 F9000 X58.01 Y59.07
G1 F2220 X40.92 Y41.99 E58.15169
G0 F9000 X40.92 Y42.69
G1 F2220 X57.30 Y59.07 E58.47940
G0 F9000 X56.60 Y59.07
G1 F2220 X40.92 Y43.40 E58.79297
G0 F9000 X40.92 Y44.11
G1 F2220 X55.89 Y59.07 E59.09240
G0 F9000 X55.18 Y59.07
G1 F2220 X40.92 Y44.81 E59.37768
G0 F9000 X40.92 Y45.52
G1 F2220 X54.48 Y59.07 E59.64881
G0 F9000 X53.77 Y59.07
G1 F2220 X40.92 Y46.23 E59.90580
G0 F9000 X40.92 Y46.93
G1 F2220 X53.06 Y59.07 E60.14864
G0 F9000 X52.35 Y59.07
G1 F2220 X40.92 Y47.64 E60.37732
G0 F9000 X40.92 Y48.35
G1 F2220 X51.65 Y59.07 E60.59185
G0 F9000 X50.94 Y59.07
G1 F2220 X40.92 Y49.06 E60.79224
G0 F9000 X40.92 Y49.76
G1 F2220 X50.23 Y59.07 E60.97849
G0 F9000 X49.53 Y59.07
G1 F2220 X40.92 Y50.47 E61.15059
G0 F9000 X40.92 Y51.18
G1 F2220 X48.82 Y59.07 E61.30854
G0 F9000 X48.11 Y59.07
G1 F2220 X40.92 Y51.88 E61.45235
G0 F9000 X40.92 Y52.59
G1 F2220 X47.40 Y59.07 E61.58200
G0 F9000 X46.70 Y59.07
G1 F2220 X40.92 Y53.30 E61.69751
G0 F9000 X40.92 Y54.01
G1 F2220 X45.99 Y59.07 E61.79888
G0 F9000 X45.28 Y59.07
G1 F2220 X40.92 Y54.71 E61.88610
G0 F9000 X40.92 Y55.42
G1 F2220 X44.58 Y59.07 E61.95917
G0 F9000 X43.87 Y59.07
G1 F2220 X40.92 Y56.13 E62.01809
G0 F9000 X40.92 Y56.83
G1 F2220 X43.16 Y59.07 E62.06287
G0 F9000 X42.46 Y59.07
G1 F2220 X40.92 Y57.54 E62.09350
G0 F9000 X40.92 Y58.25
G1 F2220 X41.75 Y59.07 E62.10998
G0 F9000 X41.04 Y59.07
G1 F2220 X40.92 Y58.96 E62.11231
G0 F9000 X41.99 Y40.92
G1 F2220 X59.07 Y58.01 E62.45418
G0 F9000 X59.07 Y57.31
G1 F2220 X42.69 Y40.92 E62.78190
G0 F9000 X43.40 Y40.92
G1 F2220 X59.07 Y56.60 E63.09547
G0 F9000 X59.07 Y55.89
G1 F2220 X44.11 Y40.92 E63.39490
G0 F9000 X44.81 Y40.92
G1 F2220 X59.07 Y55.18 E63.68017
G0 F9000 X59.07 Y54.48
G1 F2220 X45.52 Y40.92 E63.95129
G0 F9000 X46.23 Y40.92
G1 F2220 X59.07 Y53.77 E64.20827
G0 F9000 X59.07 Y53.06
G1 F2220 X46.94 Y40.92 E64.45111
G0 F9000 X47.64 Y40.92
G1 F2220 X59.07 Y52.36 E64.67980
G0 F9000 X59.07 Y51.65
G1 F2220 X48.35 Y40.92 E64.89434
G0 F9000 X49.06 Y40.92
G1 F2220 X59.07 Y50.94 E65.09474
G0 F9000 X59.07 Y50.23
G1 F2220 X49.76 Y40.92 E65.28099
G0 F9000 X50.47 Y40.92
G1 F2220 X59.07 Y49.53 E65.45309
G0 F9000 X59.07 Y48.82
G1 F2220 X51.18 Y40.92 E65.61105
G0 F9000 X51.89 Y40.92
G1 F2220 X59.07 Y48.11 E65.75485
G0 F9000 X59.07 Y47.41
G1 F2220 X52.59 Y40.92 E65.88450
G0 F9000 X53.30 Y40.92
G1 F2220 X59.07 Y46.70 E66.00001
G0 F9000 X59.07 Y45.99
G1 F2220 X54.01 Y40.92 E66.10138
G0 F9000 X54.71 Y40.92
G1 F2220 X59.07 Y45.28 E66.18860
G0 F9000 X59.07 Y44.58
G1 F2220 X55.42 Y40.92 E66.26167
G0 F9000 X56.13 Y40.92
G1 F2220 X59.07 Y43.87 E66.32061
G0 F9000 X59.07 Y43.16
G1 F2220 X56.83 Y40.92 E66.36538
G0 F9000 X57.54 Y40.92
G1 F2220 X59.07 Y42.46 E66.39601
G0 F9000 X59.07 Y41.75
G1 F2220 X58.25 Y40.92 E66.41249
G0 F9000 X58.96 Y40.92
G1 F2220 X59.07 Y41.04 E66.41482
;LAYER:3
G0 F9000 X59.25 Y40.75 Z0.80
;TYPE:WALL-INNER
G1 F2580 X59.25 Y59.25 E66.67651
G1 X40.75 Y59.25 E66.93820
G1 X40.75 Y40.75 E67.19991
G1 X59.25 Y40.75 E67.46162
G0 F9000 X59.75 Y40.25
;TYPE:WALL-OUTER
G1 F2580 X59.75 Y59.75 E67.73746
G1 X40.25 Y59.75 E68.01330
G1 X40.25 Y40.25 E68.28915
G1 X59.75 Y40.25 E68.56501
G0 F9000 X59.07 Y40.98
;TYPE:FILL
G1 F2580 X40.98 Y59.07 E68.92698
G0 F9000 X40.92 Y58.42
G1 F2580 X58.42 Y40.92 E69.27704
G0 F9000 X57.72 Y40.92
G1 F2580 X40.92 Y57.72 E69.61296
G0 F9000 X40.92 Y57.01
G1 F2580 X57.01 Y40.92 E69.93473
G0 F9000 X56.30 Y40.92
G1 F2580 X40.92 Y56.30 E70.24236
G0 F9000 X40.92 Y55.59
